public/img/icons/Alleviivaus.svg

<svg width="20" height="20" xmlns="http://www.w3.org/2000/svg" xmlns:xlink="http://www.w3.org/1999/xlink">
    <defs>
        <path d="M10 15c3.31 0 6-2.69 6-6V1h-2.5v8c0 1.93-1.57 3.5-3.5 3.5S6.5 10.93 6.5 9V1H4v8c0 3.31 2.69 6 6 6zm-7 2v2h14v-2H3z" id="a"/>
    </defs>
    <use xlink:href="#a"/>
</svg>

<?xml version="1.0" encoding="UTF-8"?>
<svg width="20px" height="20px" viewBox="0 0 20 20" version="1.1" xmlns="http://www.w3.org/2000/svg" xmlns:xlink="http://www.w3.org/1999/xlink">
    <!-- Generator: Sketch 61 (89581) - https://sketch.com -->
    <title>Alleviivaus</title>
    <desc>Created with Sketch.</desc>
    <defs>
        <path d="M10,15 C13.31,15 16,12.31 16,9 L16,1 L13.5,1 L13.5,9 C13.5,10.93 11.93,12.5 10,12.5 C8.07,12.5 6.5,10.93 6.5,9 L6.5,1 L4,1 L4,9 C4,12.31 6.69,15 10,15 Z M3,17 L3,19 L17,19 L17,17 L3,17 Z" id="path-1"></path>
    </defs>
    <g id="ASSETIT-+-tekstityylit" stroke="none" stroke-width="1" fill="none" fill-rule="evenodd">
        <g id="Ryhma-Copy-63">
            <mask id="mask-2" fill="white">
                <use xlink:href="#path-1"></use>
            </mask>
            <use id="Shape" fill="#000000" fill-rule="nonzero" xlink:href="#path-1"></use>
        </g>
    </g>
</svg>
